web/ui/src/components/data/editable-text/svgs/edit.svg

<svg height="26" viewBox="0 0 26 26" width="26" xmlns="http://www.w3.org/2000/svg"><g fill="none" fill-rule="evenodd"><path d="m0 0h26v26h-26z" fill="#000" fill-rule="nonzero" opacity="0"/><path d="m22.34375 21.53125c.4487285 0 .8125.3637715.8125.8125s-.3637715.8125-.8125.8125h-18.6875c-.44872852 0-.8125-.3637715-.8125-.8125s.36377148-.8125.8125-.8125zm-1.2424902-17.64813477c1.4389882 1.43896289 1.4533593 3.76306836.043164 5.21975391l-.043164.043875-10.800791 10.80081636c-.1492279.1492045-.35061985.2345451-.56161528.2379864h-4.1275254c-.44423437 0-.80521289-.3565352-.8125-.799043v-4.128084c0-.2110182.08209856-.4137584.22892188-.5653222l.00906445-.0091914 10.80081645-10.80081646c1.4535117-1.45353711 3.8101171-1.45353711 5.2636289 0zm-5.7152266 2.74962696-8.96220508 8.96223051v2.9655742h2.96552344l8.96223044-8.96225588zm1.6253555-1.62489844-.0247051.02429883-.4515977.45154687 2.9655489 2.96554883.4515976-.45154687c.8107227-.81072266.8188223-2.12011719.0242989-2.94081836l-.0242989-.02473047c-.8107226-.81072266-2.1201426-.81882227-2.9408437-.02429883z" fill="#6b7b8d"/></g></svg>

<?xml version="1.0" encoding="UTF-8"?>
<svg width="26px" height="26px" viewBox="0 0 26 26" version="1.1" xmlns="http://www.w3.org/2000/svg" xmlns:xlink="http://www.w3.org/1999/xlink">
    <title>编辑备份 3</title>
    <g id="页面-1" stroke="none" stroke-width="1" fill="none" fill-rule="evenodd">
        <g id="建木自动化-首页备份-4" transform="translate(-1206.000000, -422.000000)">
            <g id="编辑备份-3" transform="translate(1206.000000, 422.000000)">
                <rect id="矩形" fill="#000000" fill-rule="nonzero" opacity="0" x="0" y="0" width="26" height="26"></rect>
                <path d="M22.34375,21.53125 C22.7924785,21.53125 23.15625,21.8950215 23.15625,22.34375 C23.15625,22.7924785 22.7924785,23.15625 22.34375,23.15625 L3.65625,23.15625 C3.20752148,23.15625 2.84375,22.7924785 2.84375,22.34375 C2.84375,21.8950215 3.20752148,21.53125 3.65625,21.53125 L22.34375,21.53125 Z M21.1012598,3.88311523 C22.540248,5.32207812 22.5546191,7.64618359 21.1444238,9.10286914 L21.1012598,9.14674414 L10.3004688,19.9475605 C10.1512409,20.096765 9.94984895,20.1821056 9.73885352,20.1855469 L5.61132812,20.1855469 C5.16709375,20.1855469 4.80611523,19.8290117 4.79882812,19.3865039 L4.79882812,15.2584199 C4.79882812,15.0474017 4.88092668,14.8446615 5.02775,14.6930977 L5.03681445,14.6839063 L15.8376309,3.88308984 C17.2911426,2.42955273 19.647748,2.42955273 21.1012598,3.88308984 L21.1012598,3.88311523 Z M15.3860332,6.63274219 L6.42382812,15.5949727 L6.42382812,18.5605469 L9.38935156,18.5605469 L18.351582,9.59829102 L15.3860332,6.63274219 Z M17.0113887,5.00784375 L16.9866836,5.03214258 L16.5350859,5.48368945 L19.5006348,8.44923828 L19.9522324,7.99769141 C20.7629551,7.18696875 20.7710547,5.87757422 19.9765313,5.05687305 L19.9522324,5.03214258 C19.1415098,4.22141992 17.8320898,4.21332031 17.0113887,5.00784375 Z" id="形状" fill="#6B7B8D"></path>
            </g>
        </g>
    </g>
</svg>
